let nudgeVal = "0.035"

cps (180/60/4)
cps 1


-- CLICKER ---------------------------------------------------------------------
d6
$ degradeBy 0.4
$ fast 8
$ rarely (slow 2)
$ every 4 (0.25 ~>)
$ juxBy 0.9 (# shape (scale 0 0.8 (slow 8 (sine))))
$ degradeBy 0.5
$ sound "~ ~ ~ <click:2*4 click:2*2>"
# hpf (scale 1000 3000 $ slow 16 $ sine)
# nudge (slow 8 $ sine)
# gain 0.7

d6 silence 

-- SUBZ ------------------------------------------------------------------------
d5
$ every 5 (const
  $ sound "~"
  )
$ every 2 (const
  $ slow 3
  $ degradeBy 0.1
  $ sound "tutorial3" # n (choose [-27,-27,-26])
  # sustain 1
  # shape 0.2
  # coarse 4
  # sustain 1
  # gain 1.2
  )
$ degradeBy 0.3
$ slow 1
$ sometimes (fast 2)
$ every 4 (0.5 <~)
$ sound "<tutorial5 ~> tutorial5?> <tutorial5 ~> tutorial5>"
# f "[50] 40"
# sustain 2
# accelerate 0.3
# cutoff 50
# gain 1.2

d5 silence

-- ATTK ------------------------------------------------------------------------

r1
$ fast 2
$ degradeBy 0.3
$ sometimesBy 0.45 (# crush 2)
-- $ scramble 4
$ every 4 (0.25 ~>)
-- $ striate 4 -- !!CAREFUL!!
-- $ sound "[super808*2]"
$ sound "[msp808*2, form-msp5:1/16, m-metal:4/8]"
-- $ sound "[msp808*3, Xm-stab*2, m-tape:2]"
-- $ sound "[msp808 m-boom/4, ascii*1]"
-- $ sound "808bd:0 cp/8 form-msp1:2"
-- # n (run (choose [0, 2, 0, 1, 2, 1, 9]))
-- # n (run (choose [4, 20, 0, 1, 2, 10, 9]))
-- # n (irand 7)
# n (irand 101) --ASCII
-- # speed (scale 0.5 0.9 (slow 3 (rand)))
# sustain (scale 0.4 3 (slow 16 (sine)))
# shape "0.5"
-- # red 255
-- # green 255
-- # blue 255
# red "255 0 0"
# green "0 0 255"
# blue "0 255 0"
-- # orbit (choose [0, 1, 2])
# nudge (slow 4 $ sine)
# orbit 0

r1 silence


r1
$ fast 2
$ sound "bd"
# red "255 0 0"
# green "0 0 255"
# blue "0 255 0"

d1 $ sound "msp808"
# orbit live1
# shape 0.5

d1 silence



--------------------------------------------------------------------------------
-- RECYCLE BIN -----------------------------------------------------------------
--------------------------------------------------------------------------------

r1 $ (pure now) ~> seqPLoop [
  (0, 4, sound "bd bd*2" # red 255),
  (4, 8, sound "hh*2 [sn cp] cp future*4"),
  (8, 12, sound (samples "arpy*8" (run 16)))
]


-- fake rpi2
d1
$ fast 2
$ degradeBy 0.1
$ sometimesBy 0.25 (# crush 2)
-- $ scramble 4
-- $ every 4 (0.25 ~>)
-- $ striate 16 -- !!CAREFUL!!
$ sound "[form-msp5:1/16, m-metal:4/8]"
# n (irand 30)
# orbit 0
