let nudgeVal = "0.035"

cps (180/60/4)
cps 1


-- CLICKER ---------------------------------------------------------------------
d1
$ spin 4
$ degradeBy 0.4
$ fast 8
$ rarely (slow 2)
$ every 4 (0.25 ~>)
-- $ juxBy 0.9 (# shape (range 0 0.8 (slow 8 (sine))))
$ degradeBy 0.5
$ sound "~ ~ ~ <click:2*4 click:2*2>"
# hpf (range 1000 3000 $ slow 16 $ sine)
# nudge (slow 8 $ sine)
# gain 0.7


d1 silence

-- SUBZ ------------------------------------------------------------------------
r1
$ every 5 (const
  $ sound "~"
  )
$ every 2 (const
  $ slow 3
  $ degradeBy 0.1
  $ sound "tutorial3" # n (choose [-27,-27,-26])
  # shape 0.2
  # coarse 4
  # sustain 2
  # gain 1.2
  # pF "red" 155
  # pF "green" 55
  # pF "blue" 155
  # pF "ldecay" 1
  # orbit allSpeakers
  )
$ degradeBy 0.3
$ slow 1
$ sometimes (fast 2)
$ every 4 (0.5 <~)
$ sound "<tutorial5 ~> tutorial5?> <tutorial5 ~> tutorial5>"
# pF "f" "[50] 40"
# sustain 2
# accelerate 0.3
# cutoff 50
# gain 1.2
# pF "red" "255 100"
# pF "blue" "55 255"
# orbit allSpeakers

r1 silence

-- ATTK ------------------------------------------------------------------------

r2
$ spin 2
$ fast 2
$ degradeBy 0.3
$ sometimesBy 0.15 (# crush 2)
$ sometimesBy 0.15 (# n (irand 7))
$ scramble 4
$ every 4 (0.25 ~>)
-- $ striate 16 -- !!CAREFUL!!
-- $ sound "[msp808*2]"
-- $ sound "[form-msp5:5*4, m-metal/8]"
-- $ sound "[m-metal/4]"
-- $ sound "[msp808*3, m-stab*2, m-tape:2]"
$ sound "[msp808 m-boom/4, ascii*1]"
-- $ sound "808bd:0 cp/8 Xform-msp1:2"
-- # n (run (choose [0, 2, 0, 1, 2, 1, 9]))
-- # n (run (choose [4, 20, 0, 1, 2, 10, 9]))
-- # n (irand 7)
# n (irand 101) --ASCII
# speed (range 0.95 1.05 (slow 3 (rand)))
-- # sustain (range 0.4 3 (slow 16 (sine)))
-- # shape "0.5"
-- # red "255 0 0"
-- # green "0 255 0"
-- # blue "0 0 255"
-- # nudge (slow 4 $ sine)
# gain 0.8
-- # pan leftSurround
# pan (slow 8 $ sine)
-- # pan (choose [left, center, right, leftSurround, rightSurround])
# pF "scene" 3

r2 silence


-- BAR -------------------------------------------------------------------------

let fill2 = const $ degradeBy 0.2 $ sound "form-msp5:4*8" # begin (range 0 0.1 (fast 2 sine)) # end (range 1 0.854 $ sine) # room (range 0.2 0.1 (slow 3 (sine))) # size (range 0.1 0.9 (slow 2 (sine))) # gain 1 # shape 0.3 # pan (range 0 1 saw) # pF "red" 255

let silence1 = const $ degradeBy 0.3 $ sound "~"

r3


p1
$ sound "form-msp8:8*4"
# legato 1

p1
$ sometimesBy 0.3 (zoom (0.25, 0.75))
$ spin 8
$ degradeBy 0.3
$ sometimesBy 0.25 (# crush 4)
$ sometimesBy 0.5 (silence1)
$ every 8 (fill2)
-- $ sometimesBy 0 (fill2)
$ degradeBy 0.3
$ sound "[form-msp7*4, gabba*1?, form-msp8:8/2]"
-- # n (irand 10)
# gain "1 0.8"
# shape 0.6
# legato 1
# pF "red" 255
# pF "blue" 255
# pF "green" 255
-- # pan (range 0 1 (slow 2 saw1))

r3 silence

-- FX

d8
$ spin 4
$ fast 2
$ degradeBy 0.1
$ sometimesBy 0.25 (# crush 2)
$ scramble 4
-- $ every 4 (0.25 ~>)
-- $ striate 16 -- !!CAREFUL!!
$ sound "[form-msp5, m-metal:4/8]"
# gain 0.7
# n (irand 30)
# pF "red" 255
# pF "green" 200
# pF "blue" 155
# orbit out1

d8 silence


-- TEST --
r1
-- $ sometimesBy 0.5 (# crush 4)
$ slow 1
$ sound "bd*4"
# pF "red" 255
# pF "green" 255
# pF "blue" 255
-- # pF "blue" (range 0 255 (slow 16 (sine)))
# pF "ldecay" 0.05
# sustain 1.0

r1 silence

-- OFF --
r1
$ pF "red" 0
# pF "green" 0
# pF "blue" 0



--------------------------------------------------------------------------------
-- RECYCLE BIN -----------------------------------------------------------------
--------------------------------------------------------------------------------

r1 $ (pure now) ~> seqPLoop [
  (0, 4, sound "bd bd*2" # red 255),
  (4, 8, sound "hh*2 [sn cp] cp future*4"),
  (8, 12, sound (samples "arpy*8" (run 16)))
]


-- fake rpi2
r1
$ spin 4
$ fast 2
$ degradeBy 0.1
$ sometimesBy 0.25 (# crush 2)
-- $ scramble 4
-- $ every 4 (0.25 ~>)
-- $ striate 16 -- !!CAREFUL!!
$ sound "[form-msp5:1/16, m-metal:4/8]"
# n (irand 30)
