d1
$ sound "msp808*4"
# pan 0.2

d1
$ slow 1
$ sound "bd*4"
# pan (slow 4 $ sine)

d2
$ sound "~ bd*128"
# pan (slow 4 $ saw)
# gain 0.7

d1 silence


d1
$ slow 3
$ sound "help_Control_DynKlank"
# pan (slow 2 $ saw)
# freq 298
